X: 14
T:Amalel Shir
C:Avihu Medina 1981
O:Israeli
I:Choreographer: S. Maman 1981
F: http://www.youtube.com/watch?v=KnYDAlX-CJ8
F: http://www.youtube.com/watch?v=8skCXLvPWBo
L:1/8
M:4/4
Q:1/4=120
K:Gm
  "Gm".G2 .d2 .B2 .G2| "Dm"FG GF "Gm"B2 A2| .G2 .d2 .B2 .G2    | "Dm"FG GF "Gm"G4|\
  "Gm".G2 .d2 BA G2  | "Dm"FG GF "Gm"BA G2| .G2 .d2 .B2 .G2    | "Dm"AG GF "Gm"G4|
|:"Dm"FGAB "F"c2 d2  | c2 B2 c2 z2        | "Dm"FGAB  "Gm"d2 c2|[1 B2 A2 G2 z2   :| [2 B2 A2 G2 zF     |\
  "Dm"A2 B2 A2 zF    | A2 B2 A2 zF        |
  ABAB  "Gm"d2 c2    | B2 A2 G2 z2        | d2 cd d4-          |d8               | "Bb"BF AB "Gm"d2 c2 | B2 A2 G2 z2|



